!!!OTL: Nanguo de yahuan
!!!ARE: Asia, China,ÿHenan, Kaifeng
!! IV, 143
!!!SCT: C1655
!!!YEM: Copyright 1995, estate of Helmut Schaffrath.
**kern
*ICvox
*Ivox
!! Mixed meters:  2/4; 3/4
*M3/4
*k[b-]
*F:
{8g
16g
16d
4f
=1
8g
8cc
4a
=2
8g
16f
16g
8cc
8a
=3
16g
8.f
4d}
=4
{16d
16f
8d
8g
8f
=5
8a
16f
16g
4f
4d
=6
*M2/4
4b-
16cc
16b-
8cc
=7
8g
8r
4a}
=8
{16g
16a
8f
8g
8d
=9
8dd
16dd
16ff
8cc
8g
=10
4f
4d}
=11
{8g
16g
16b-
4d
=12
8g
8dd
8cc
8b-
=13
16g
16a
16f
16g
8cc
8g
=14
16g
8.f
4d}
=15
{8g
16g
16b-
4d
=16
8g
8dd
8cc
16b-
16a
=17
16g
16a
16f
16g
8cc
8g
=18
16g
8.f
4d}
=19
{8g
16g
16b-
4d
=20
16f
16d
16g
16d
4d
=21
8g
16g
16b-
8d
8f
=22
8g
16g
16b-
4d}
=23
{8f
8g
8f
8g
=24
8f
16f
16g
8f
8g
=25
4.cc
8a
=26
16g
8f
16g
4f
=27
8b-
16b-
16g
8cc
8g
=28
4f
4d}
==
!!!AGN: Wuge, Yangge
!!!AMT: irregular
!!!AIN: vox
!!!EED: Helmut Schaffrath
!!!EEV: 1.0
*-
